!!!!SEGMENT: Distler_Jahrkreis_33_Es-ist-das-Heil-uns-kommen-her_3v.krn
!!!COM: Distler, Hugo
!!!CDT: 1908-1942
!!!OPR@@DE: Der Jahrkreis
!!!OPR@EN: The Year Cycle
!!!OTL@@DE: Es ist das Heil uns kommen her
!!!OTL@EN: ...
!!!OPS: 5
!!!ONM: 33
!!!RNB: 2-voice section for second verse omitted. (measure number exclude this section).
**kern	**text	**kern	**text	**kern	**text
*part3	*part3	*part2	*part2	*part1	*part1
*staff3	*staff3	*staff2	*staff2	*staff1	*staff1
*Ialto	*	*Isoprn	*	*Isoprn	*
*clefG2	*	*clefG2	*	*clefG2	*
*k[b-e-a-]	*	*k[b-e-a-]	*	*k[b-e-a-]	*
*MM120	*	*MM120	*	*MM120	*
*M4/4	*	*M4/4	*	*M4/4	*
=1	=1	=1	=1	=1	=1
4r	.	2r	.	1r	.
8r	.	.	.	.	.
8c	Es	.	.	.	.
4c	ist	4r	.	.	.
4c	das	8r	.	.	.
.	.	8f	Es	.	.
=2	=2	=2	=2	=2	=2
4c	Heil	4f	ist	2r	.
4e-	uns	4f	das	.	.
(8dLL	kom-	4f	Heil	4r	.
16c	.	.	.	.	.
16B-JJ)	.	.	.	.	.
4c	men	4a-	uns	8r	.
*	*	*	*	*^	*
.	.	.	.	8b-	8b-	Es
*	*	*	*	*v	*v	*
=3	=3	=3	=3	=3	=3
(16B-LL	her,	(8.gLLL	kom-	4b-	ist
16c	.	.	.	.	.
16d	.	.	.	.	.
16e-	.	16a-	.	.	.
8fJJ),	.	16.b-	.	4b-	das
.	.	32b-	.	.	.
8f	es	16a-	.	.	.
.	.	16g	.	.	.
4f	ist	8f	.	4b-	Heil
.	.	8e-JJJ)	.	.	.
4f	das	4f	men	4dd-	uns
!!LO:LB:g=original
=4	=4	=4	=4	=4	=4
4f	Heil	2.e-	her	(8ccLL	kom-
.	.	.	.	16b-	.
.	.	.	.	16a-JJ	.
4a-	uns	.	.	4b-	.
4.g	kom-	.	.	16a-LL	.
.	.	.	.	16b-	.
.	.	.	.	16cc	.
.	.	.	.	16dd-	.
.	.	4r	.	8.ee-	.
8f	men	.	.	.	.
.	.	.	.	16dd-	.
=5	=5	=5	=5	=5	=5
2e-	her	4r	.	8cc	.
.	.	.	.	8dd-JJ)	.
.	.	4e-	von	4b-	men
4r	.	4c	Gnad'	4a-,	her
4e-	von	4B-	und	4b-	von
=6	=6	=6	=6	=6	=6
*M5/4	*	*M5/4	*	*M5/4	*
4c	Gnad'	4c	lau-	4g	Gnad'
4B-	und	4d	ter	(16e-LL	und
.	.	.	.	16fJJ)	.
.	.	.	.	(4g	lau-
4.c	lau-	(4.e-	Gue-	.	.
.	.	.	.	8an)	.
.	.	.	.	4b-	ter
8B-	ter	8d	.	.	.
*	*	*	*	*^	*
4An	Gue-	4e-)	.	4cc	4cc	Gue-
=7	=7	=7	=7	=7	=7	=7
*M2/4	*	*M2/4	*	*M2/4	*M2/4	*
2G	te;	2d	te;	2dd	2bn	te;
*	*	*	*	*v	*v	*
==	==	==	==	==	==
=8	=8	=8	=8	=8	=8
*	*	*	*	*^	*
*M4/4	*	*M4/4	*	*M4/4	*M4/4	*
2G	ten.	2d	ten.	2dd	2bn	ten.
4r	.	4r	.	4r	4r	.
4e-	Der	4g	Der	4b-	4b-	Der
*	*	*	*	*v	*v	*
!!LO:LB:g=original
=9	=9	=9	=9	=9	=9
*M5/4	*	*M5/4	*	*M5/4	*
4c	Glaub'	2g	Glaub'	2ee-	Glaub'
4A-	steht	.	.	.	.
2e-	Je-	4g	steht	4ee-	steht
.	.	4a-	Je-	4cc	Je-
4f	sum	4b-	sum	4dd	sum
=10	=10	=10	=10	=10	=10
*M5/8	*	*M5/8	*	*M5/8	*
(8.cLL	Chri-	(8.b-LL	Chri-	(8.ee-LL	Chri-
16d	.	16a-	.	16dd	.
8e-	.	8g	.	8b-	.
8fJJ)	.	8fJJ)	.	8ccJJ)	.
*	*	*^	*	*	*
8f	stum	8e-	8e-	stum	8cc	stum
=11	=11	=11	=11	=11	=11	=11
*M4/4	*	*M4/4	*M4/4	*	*M4/4	*
4B-,	an,	2f	2d	an,	2b-	an,
4B-	der	.	.	.	.	.
*	*	*v	*v	*	*	*
4e-	hat	4r	.	2r	.
4B-	g'nug	4e-	der	.	.
=12	=12	=12	=12	=12	=12
4c	fuer	(4.a-	hat	4r	.
4G	uns	.	.	4b-	der
.	.	8g	.	.	.
(4B-	all'	4e-)	.	4ee-	hat
8A-L	.	4f	g'nug	4b-	g'nug
8GJ	.	.	.	.	.
!!LO:LB:g=original
=13	=13	=13	=13	=13	=13
4A-)	.	4.e-	fuer	4cc	fuer
4c	ge-	.	.	4g	uns
.	.	8e-	uns	.	.
2G,	tan,	4d	all'	4b-	all'
.	.	4c	ge-	4a-	ge-
=14	=14	=14	=14	=14	=14
*M3/4	*	*M3/4	*	*M3/4	*
4c	er	2e-	tan,	2g	tan,
4B-	ist	.	.	.	.
4d-	der	4r	.	4r	.
=15	=15	=15	=15	=15	=15
2c	Mitt-	4g	er	4g	er
.	.	4f	ist	4a-	ist
4B-	ler	4a-	der	4b-	der
=16	=16	=16	=16	=16	=16
(4.f	wor-	2g	Mitt-	2cc	Mitt-
8e-	.	.	.	.	.
4c	.	4f	ler	[4b-	ler
=17	=17	=17	=17	=17	=17
2e-	.	(4e-	wor-	4b-]	.
.	.	2f)	.	2a-	wor-
4c)	.	.	.	.	.
=18	=18	=18	=18	=18	=18
2e-	den.	2g	den.	2b-	den.
4r	.	4r	.	4r	.
!!LO:LB:g=original
==	==	==	==	==	==
=19	=19	=19	=19	=19	=19
*M4/4	*	*M4/4	*	*M4/4	*
8r	.	8r	.	8r	.
*	*	*^	*	*	*
8B-	Sein	8b-	8b-	Sein	8b-	Sein
*	*	*v	*v	*	*	*
=20	=20	=20	=20	=20	=20
4.e-	Reich	4a-	Reich	4b-	Reich
.	.	4g	zu-	4b-	zu-
8e-	zu-	.	.	.	.
4.B-	komm',	4.f	komm',	4b-	komm',
.	.	.	.	4dd-	sein
8B-	sein	8b-	sein	.	.
=21	=21	=21	=21	=21	=21
4.f	Will'	4a-	Will'	4cc	Will'
.	.	4g	auf	4b-	auf
8f	auf	.	.	.	Erd'
4c,	Erd'	4f,	Erd'	4a-,	.
[4e-	g'scheh'	[4g	g'scheh'	[4b-	g'scheh'
=22	=22	=22	=22	=22	=22
*M3/4	*	*M3/4	*	*M3/4	*
4e-]	.	4g]	.	4b-]	.
4d	wie	(4.g	wie	4g	wie
4c	im	.	.	4e-	im
.	.	8f)	.	.	.
!!LO:LB:g=original
=23	=23	=23	=23	=23	=23
*M4/4	*	*M4/4	*	*M4/4	*
(4.d	Him-	4e-	im	(8.gLL	Him-
.	.	.	.	16an	.
.	.	4f	Him-	8b-	.
8e-	.	.	.	16a	.
.	.	.	.	16g	.
4f)	.	4f	mels-	16a	.
.	.	.	.	16b-	.
.	.	.	.	8.cc	.
*	*	*^	*	*	*
4f	mels-	([4f	([4f	thro-	.	.
.	.	.	.	.	16b-JJ)	.
.	.	.	.	.	8a	mels-
=24	=24	=24	=24	=24	=24	=24
2d	thro-	4f]	4f]	.	2b-	thro-
.	.	4g)	4e-)	.	.	.
4B-	ne;	4f	4d	ne;	4b-	ne;
*	*	*v	*v	*	*	*
=:|!	=	=:|!	=	=:|!	=
[4B-	wie	4B-	wie	4r	.
=25	=25	=25	=25	=25	=25
8B-]	.	4e-	wir	1r	.
8B-	wir	.	.	.	.
4B-	auch	4d	auch	.	.
4A-	un-	4c	un-	.	.
4G	sern	4d	sern	.	.
!!LO:LB:g=original
=26	=26	=26	=26	=26	=26
4c	Schuld-	4e-	Schuld-	4r	.
*	*	*^	*	*	*
4c	nern	4e-	4e-	nern	8b-	lass
.	.	.	.	.	8b-	uns
2G	tun;	4e-,	4B-	tun;	4ee-,	nicht,
.	.	8B-	8B-	lass	8b-	lass
.	.	8B-	8B-	uns	8b-	uns
*	*	*v	*v	*	*	*
=27	=27	=27	=27	=27	=27
*M6/4	*	*M6/4	*	*M6/4	*
4r	.	4e-	nicht	8.cc	nicht
.	.	.	.	16cc	in
8B-	lass	8e-	in	4b-	Ver-
8B-	uns	8d	Ver-	.	.
4e-	nicht	4c	su-	4a-	su-
8e-	in	4d	chung	4a-	chung
8d	Ver-	.	.	.	.
4c	su-	2en,	steh'n,	2g,	steh'n,
4c	chung	.	.	.	.
=28	=28	=28	=28	=28	=28
*M4/4	*	*M4/4	*	*M4/4	*
*^	*	*	*	*	*
[1d	[1G	steh'n,	2d	loes'	2g	loes'
.	.	.	4d	uns	4f	uns
.	.	.	4c	vom	4a-	vom
!!LO:LB:g=original
=29	=29	=29	=29	=29	=29	=29
*M5/4	*M5/4	*	*M5/4	*	*M5/4	*
1d]	1G]	.	4e-	Ue-	4g	Ue-
*v	*v	*	*	*	*	*
.	.	8d,	bel,	8g,	bel,
.	.	8d	loes'	8g	loes'
.	.	8d	uns	8f	uns
.	.	8c	vom	8a-	vom
.	.	4e-	Ue-	4g	Ue-
4r	.	4d,	bel!	4f,	bel!
=30	=30	=30	=30	=30	=30
*M4/4	*	*M4/4	*	*M4/4	*
4r	.	(2c	A-	(4.e-	A-
4G	loes'	.	.	.	.
.	.	.	.	8f	.
4F	uns	4.d-	.	4a-	.
4A-	vom	.	.	8gL	.
.	.	8cL	.	8f	.
=31	=31	=31	=31	=31	=31
*M5/4	*	*M5/4	*	*M5/4	*
(4.G	Ue-	8d-	.	8g	.
.	.	8e-J	.	8a-J	.
.	.	4.f	.	4.b-	.
8F)	.	.	.	.	.
4E-,	bel!	.	.	.	.
*	*	*	*	*^	*
.	.	8e-	.	8ccL	8ccL	.
2F	A-	4d-	.	8b-	8b-	.
.	.	.	.	8cc	8cc	.
.	.	8e-L	.	8b-	8b-	.
.	.	8fJ	.	8ccJ	8a-J	.
=32	=32	=32	=32	=32	=32	=32
1E-	men!	4g	.	4ee-	4b-	.
.	.	4a-)	.	4ff)	4cc	.
.	.	2g	men!	2ee-	2b-	men!
*	*	*	*	*v	*v	*
==	==	==	==	==	==
*-	*-	*-	*-	*-	*-
!!!YOR: Bärenreiter-Ausgabe 676
!!!YOY: 1933
!!!EFL: 33/52
!!!URL-pdf: https://imslp.eu/files/imglnks/euimg/7/7d/IMSLP834545-PMLP518834-5-jahrkreis-EA--original-paper-600dpi.pdf#page=62 First edition, Kassel: Bärenreiter, 1933. Plate BA 676.
!!!URL-imslp: https://imslp.org/wiki/Der_Jahrkreis,_Op.5_(Distler,_Hugo)#IMSLP834545
!!!system-decoration: [(s1,s2,s3)]
!!!ENC: Lucas Hofmann
!!!END: 2023/11/12
!!!title: @{OPR@@DE}, Op. @{OPS}, Nr. @{ONM}. @{OTL@@DE}
